assets/icons/ic_facebook.svg

<svg fill="none" height="23" viewBox="0 0 23 23" width="23" xmlns="http://www.w3.org/2000/svg"><path d="m22.9992 11.4996c0-6.35084-5.1487-11.4996-11.4996-11.4996-6.35084 0-11.4996 5.14876-11.4996 11.4996 0 5.7399 4.20503 10.4969 9.70261 11.3601v-8.0359h-2.92014v-3.3242h2.92014v-2.53373c0-2.88181 1.71649-4.47412 4.34379-4.47412 1.2581 0 2.5744.22463 2.5744.22463v2.82967h-1.4497c-1.4283 0-1.8737.88623-1.8737 1.79547v2.15728h3.1892l-.5098 3.3242h-2.6794v8.0359c5.4976-.8624 9.7026-5.6202 9.7026-11.3601z" fill="#4373b9"/><path d="m15.9761 14.8234.5098-3.3241h-3.1892v-2.15734c0-.90924.4454-1.79547 1.8736-1.79547h1.4497v-2.82968s-1.3163-.22462-2.5743-.22462c-2.6265 0-4.34383 1.59231-4.34383 4.47411v2.5338h-2.92013v3.3241h2.92013v8.0359c.58573.092 1.18523.1396 1.79703.1396s1.2113-.0476 1.797-.1396v-8.0359h2.6794z" fill="#fff"/></svg>

<svg width="23" height="23" viewBox="0 0 23 23" fill="none" xmlns="http://www.w3.org/2000/svg">
    <path
        d="M22.9992 11.4996C22.9992 5.14876 17.8505 0 11.4996 0C5.14876 0 0 5.14876 0 11.4996C0 17.2395 4.20503 21.9965 9.70261 22.8597V14.8238H6.78247V11.4996H9.70261V8.96587C9.70261 6.08406 11.4191 4.49175 14.0464 4.49175C15.3045 4.49175 16.6208 4.71638 16.6208 4.71638V7.54605H15.1711C13.7428 7.54605 13.2974 8.43228 13.2974 9.34152V11.4988H16.4866L15.9768 14.823H13.2974V22.8589C18.795 21.9965 23 17.2387 23 11.4988L22.9992 11.4996Z"
        fill="#4373B9" />
    <path
        d="M15.9761 14.8234L16.4859 11.4993H13.2967V9.34196C13.2967 8.43272 13.7421 7.54649 15.1703 7.54649H16.62V4.71681C16.62 4.71681 15.3037 4.49219 14.0457 4.49219C11.4192 4.49219 9.70187 6.0845 9.70187 8.9663V11.5001H6.78174V14.8242H9.70187V22.8601C10.2876 22.9521 10.8871 22.9997 11.4989 22.9997C12.1107 22.9997 12.7102 22.9521 13.2959 22.8601V14.8242H15.9753L15.9761 14.8234Z"
        fill="white" />
</svg>
